resources/iconmonstr-chart-4.svg

<svg xmlns="http://www.w3.org/2000/svg" width="24" height="24" viewBox="0 0 24 24"><path d="M5 19h-4v-4h4v4zm6 0h-4v-8h4v8zm6 0h-4v-13h4v13zm6 0h-4v-19h4v19zm1 2h-24v2h24v-2z"/></svg>

<?xml version="1.0" encoding="utf-8"?>
<!-- Generator: Adobe Illustrator 12.0.0, SVG Export Plug-In . SVG Version: 6.00 Build 51448)  -->
<!DOCTYPE svg PUBLIC "-//W3C//DTD SVG 1.1//EN" "http://www.w3.org/Graphics/SVG/1.1/DTD/svg11.dtd" [
	<!ENTITY ns_svg "http://www.w3.org/2000/svg">
	<!ENTITY ns_xlink "http://www.w3.org/1999/xlink">
]>
<svg  version="1.1" id="Layer_1" xmlns="&ns_svg;" xmlns:xlink="&ns_xlink;" width="24" height="24" viewBox="0 0 24 24"
	 overflow="visible" enable-background="new 0 0 24 24" xml:space="preserve">
<path fill="#105997" d="M5,19H1v-4h4V19z M11,19H7v-8h4V19z M17,19h-4V6h4V19z M23,19h-4V0h4V19z M24,21H0v2h24V21z"/>
</svg>
